X: 11758
T: Elf's Wedding Jig
R: slide
M: 12/8
K: Dmajor
D2E|F2 AE2A D2 AE2A|A2 Bc2d f2 d2<d2|F2 AE2A D2 AE2A|A2 Bc2d e2 d2<d2|F2 AE2A D2 AE2A|
A2 Bc2d f2 d2<d2|F2 AE2A D2 AE2A|A2 Bc2d e2 dd2d/e/|f2 d2>B2 A2 BA2F|
(AB) cd2e f2 dd2d/e/|f2 d2>B2 A2 BA2F|(AB) cd2e d5d/e/|f2 d2>B2 A2 BA2F|
(AB) cd2e f2 dd2d/e/|f2 d2>B2 A2 BA2F|(AB) cd2e2< d2|

